src/icons/file-compact.svg

<svg width="16" height="16" viewBox="0 0 16 16" fill="none" xmlns="http://www.w3.org/2000/svg">
<path fill-rule="evenodd" clip-rule="evenodd" d="M2 6C2 4.59987 2 3.8998 2.27248 3.36502C2.51217 2.89462 2.89462 2.51217 3.36502 2.27248C3.8998 2 4.59987 2 6 2V2.4C6 2.96005 6 3.24008 6.10899 3.45399C6.20487 3.64215 6.35785 3.79513 6.54601 3.89101C6.75992 4 7.03995 4 7.6 4H8V6H7C6.44772 6 6 6.44772 6 7C6 7.55228 6.44772 8 7 8H8V10H7C6.44772 10 6 10.4477 6 11C6 11.5523 6.44772 12 7 12H8V14H6C4.59987 14 3.8998 14 3.36502 13.7275C2.89462 13.4878 2.51217 13.1054 2.27248 12.635C2 12.1002 2 11.4001 2 10V6ZM8 12V10H9C9.55228 10 10 9.55228 10 9C10 8.44772 9.55228 8 9 8H8V6H9C9.55228 6 10 5.55228 10 5C10 4.44772 9.55228 4 9 4H8V2H10C11.4001 2 12.1002 2 12.635 2.27248C13.1054 2.51217 13.4878 2.89462 13.7275 3.36502C14 3.8998 14 4.59987 14 6V10C14 11.4001 14 12.1002 13.7275 12.635C13.4878 13.1054 13.1054 13.4878 12.635 13.7275C12.1002 14 11.4001 14 10 14V13.6C10 13.0399 10 12.7599 9.89101 12.546C9.79513 12.3578 9.64215 12.2049 9.45399 12.109C9.24008 12 8.96005 12 8.4 12H8Z" fill="#8CC162"/>
</svg>

<svg xmlns="http://www.w3.org/2000/svg" width="16" height="16" fill="none"><path fill="#8CC162" fill-rule="evenodd" d="M2 6c0-1.4 0-2.1.272-2.635a2.5 2.5 0 0 1 1.093-1.093C3.9 2 4.6 2 6 2v.4c0 .56 0 .84.109 1.054a1 1 0 0 0 .437.437C6.76 4 7.04 4 7.6 4H8v2H7a1 1 0 0 0 0 2h1v2H7a1 1 0 1 0 0 2h1v2H6c-1.4 0-2.1 0-2.635-.273a2.5 2.5 0 0 1-1.093-1.092C2 12.1 2 11.4 2 10zm6 6v-2h1a1 1 0 0 0 0-2H8V6h1a1 1 0 0 0 0-2H8V2h2c1.4 0 2.1 0 2.635.272a2.5 2.5 0 0 1 1.092 1.093C14 3.9 14 4.6 14 6v4c0 1.4 0 2.1-.273 2.635a2.5 2.5 0 0 1-1.092 1.092C12.1 14 11.4 14 10 14v-.4c0-.56 0-.84-.109-1.054a1 1 0 0 0-.437-.437C9.24 12 8.96 12 8.4 12z" clip-rule="evenodd"/></svg>
